X: 22705
T: Lament For Kinsale
R: waltz
M: 3/4
K: Adorian
E2 AB c5|B2 A6|E2 AB c5|Bcde =f4|e2 d2 B3A|G8|g6 B2|c3 B2 A3|G3 A5|
E2 AB c3 B2|A2 G2 A4|E2 AB c5|Bcde =f4|e2 d2 B3A|G8|g6 B2|c3 B2 A3|G3 A5|
A (3Bcd e3 d|e6 ab|c'6 b2|a8|g2a2 b4|gab a4 g|efg d3 ed|B2 c6|Bcde =f4|e2 d2 B3A|G3 A5|
e4 a4|a3 g e2 a2|a3 g e a|b6 g2|e3 d3 a6|a3 g e2 a4|a3 g efg d3 ed|B2 c6|Bcde =f4|e2 d2 B3A|G3 A5|
e4 a4|a3 g e2 a2|(9ABcdefgab|c'6 b2|a8 g2a2 b4|g2 ab a3 g|efg d3 ed|B2 c6|Bcde =f4|e2 d2 B3A|G3 A5||

